X: 30584
T: One For Dan
R: reel
M: 4/4
K: Gmajor
|:G2 ge d2 ed|G2 ge dBed|c2 Ac BBGB|ABcd AAAB|
GBge dBed|GBge dBed|cdef gedc|B2 A2 G4:|
|:d2 fe d2 dd|e2 f2 g4|fe d2 ed c2|dc B2 A4|
c2 cc B2 BB|cB cd A4|GABc dcBA|Gg gf g4:|

